X: 16047
T: Green Cottage, The
R: polka
M: 2/4
K: Gmajor
|:de/d/ Bc/A/|BG G/F/G/B/|AD FA|AG GB|
de/d/ Bc/A/|BG G/F/G/B/|AD FA|1 BG GB:|2 BG G2||
|:Bd g2|fe e/f/e/d/|Bd ef|ed B/A/B/A/|
Be/f/ g2|fe e/f/e/d/|Bd ef|1 g2 gf/e/:|2 g2 g/a/g/e/||

